dist/svg/city.svg

<!-- Generated by Trend Micro Style Portal -->
<svg version="1.1" xmlns="http://www.w3.org/2000/svg" width="16" height="16" viewBox="0 0 16 16">
  <title>city</title>
  <path fill="rgb(34,34,34)" d="M9 3v12h7v-12h-7zM12 4h1v1h-1v-1zM12 6h1v1h-1v-1zM12 8h1v1h-1v-1zM12 10h1v1h-1v-1zM10 4h1v1h-1v-1zM10 6h1v1h-1v-1zM10 8h1v1h-1v-1zM10 10h1v1h-1v-1zM14 14h-3v-2h3v2zM15 11h-1v-1h1v1zM15 9h-1v-1h1v1zM15 7h-1v-1h1v1zM15 5h-1v-1h1v1zM0 15h8v-14h-8v14zM6 14h-4v-2h4v2zM1 3h6v1h-6v-1zM1 5h6v1h-6v-1zM1 7h6v1h-6v-1zM1 9h6v1h-6v-1z"></path>
</svg>

<svg width="16" height="16" viewBox="0 0 16 16" fill="rgb(34, 34, 34)" xmlns="http://www.w3.org/2000/svg"><title>city</title><path d="M9 3V15H16V3H9ZM12 4H13V5H12V4ZM12 6H13V7H12V6ZM12 8H13V9H12V8ZM12 10H13V11H12V10ZM10 4H11V5H10V4ZM10 6H11V7H10V6ZM10 8H11V9H10V8ZM10 10H11V11H10V10ZM14 14H11V12H14V14ZM15 11H14V10H15V11ZM15 9H14V8H15V9ZM15 7H14V6H15V7ZM15 5H14V4H15V5ZM0 15H8V1H0V15ZM6 14H2V12H6V14ZM1 3H7V4H1V3ZM1 5H7V6H1V5ZM1 7H7V8H1V7ZM1 9H7V10H1V9Z" fill="rgb(34, 34, 34)" fill-opacity="1.00"/></svg>
